X: 731
T: the Priest with the Collar   #2
R: double jig
%S: s:3 b:18(6+6+6)
B: O'Neill's 1850 #731
Z: henrik.norbeck@mailbox.swipnet.se
N: Compacted via repeats and multiple endings [JC]
M: 6/8
L: 1/8
K: G
D |:\
GBG AGE |1,4 c2c B2A \
       :|2,5 G2G G2D \
       :|3,6 AEA ABc | BAG AGE | G2G G2 :|
|: (B/c/) |:\
dBB dBB |1,4 A2A A2(B/c/) \
       :|2,5 G2G G2(B/c/) \
       :|3,6 AEA ABc | BAG AGE | G2G G2 :|
|: (d/e/) |:\
f2d edB |1,4 A2A A2(d/e/) \
       :|2,5 G2G G2(d/e/) \
       :|3,6 AEA ABc | BAG AGE | G2G G2 :|
